X: 19896
T: Jig For John
R: jig
M: 6/8
K: Amajor
F|E2c G/A/Bc|dBG Ace|d2e cBA|GFE D2E|
CEA DFA|EGB cAF|~E3 F/G/AB|BAG A2:|:
G|~F3 FdF|cFB FAG|~E3 cEd|edB c2A|
~F3 FdF|cFB FAG|~E3 F/G/AB|BAG A2:|

